assets/src/images/icons/ic_set_home.svg

<svg width="98" height="106" viewBox="0 0 98 106" fill="none" xmlns="http://www.w3.org/2000/svg">
<g filter="url(#filter0_d)">
<path fill-rule="evenodd" clip-rule="evenodd" d="M64.9354 58.1002V59.6192H30V58.1002H33.0379V45.9488C33.0379 45.5294 33.3779 45.1893 33.7973 45.1893H40.6325V36.0757C40.6325 35.6563 40.9726 35.3163 41.392 35.3163H42.9109V33.0379C42.9109 32.6185 43.251 32.2784 43.6704 32.2784H46.7083V30H48.2272V32.2784H51.265C51.6845 32.2784 52.0245 32.6185 52.0245 33.0379V35.3163H53.5434C53.9629 35.3163 54.3029 35.6563 54.3029 36.0757V42.1515H61.1381C61.5575 42.1515 61.8976 42.4915 61.8976 42.9109V58.1002H64.9354ZM45.9488 55.0624V58.1002H48.9867V55.0624H45.9488ZM60.3786 58.1002V43.6704H54.3029V58.1002H60.3786ZM50.5056 33.7973H44.4299V35.3163H50.5056V33.7973ZM52.784 36.8352H42.1515V58.1002H44.4299V54.3029C44.4299 53.8835 44.7699 53.5434 45.1893 53.5434H49.7461C50.1655 53.5434 50.5056 53.8835 50.5056 54.3029V58.1002H52.784V36.8352ZM40.6325 46.7083H34.5568V58.1002H40.6325V46.7083ZM48.2272 38.3541H46.7082V39.8731H48.2272V38.3541ZM46.7082 41.392H48.2272V42.9109H46.7082V41.392ZM48.2272 44.4298H46.7082V45.9487H48.2272V44.4298ZM46.7082 47.4676H48.2272V48.9866H46.7082V47.4676ZM48.2272 50.5055H46.7082V52.0244H48.2272V50.5055ZM62.7138 61.5543L66.9958 63.1129C67.3877 63.2557 67.5913 63.6881 67.4515 64.0812L63.2956 75.5006C63.2266 75.6897 63.0853 75.8436 62.9029 75.9289C62.8024 75.976 62.6926 76.0005 62.5817 76.0001C62.4935 76.0005 62.4056 75.9845 62.3229 75.9537L58.0402 74.3955C57.6456 74.2527 57.4416 73.817 57.5844 73.4224L57.844 72.7086L57.3808 72.5402L53.0261 74.0106C52.9479 74.0369 52.8659 74.0506 52.7832 74.0506C52.6946 74.0506 52.6063 74.0351 52.5233 74.0043L36.9279 68.3279C35.5324 67.8499 34.6662 66.456 34.8553 64.9934C35.0066 63.9833 35.6533 63.1162 36.5782 62.6839C37.3076 62.3405 38.1442 62.3034 38.9007 62.5811L43.6351 64.3122C44.0694 63.4671 44.873 62.8733 45.8082 62.7065L56.1307 60.8838C56.2616 60.8597 56.3966 60.8716 56.5212 60.9179L61.4811 62.7232L61.7411 62.0101C61.8838 61.6155 62.3192 61.4115 62.7138 61.5543ZM57.1468 71.018C57.3104 70.9627 57.4876 70.9646 57.6497 71.0235L58.3643 71.2853L60.9619 64.1464L56.1923 62.4109L46.0723 64.1957C45.5379 64.2914 45.0944 64.6641 44.9082 65.174C44.8841 65.2356 44.8667 65.2993 44.8559 65.3646C44.8125 65.5623 44.8073 65.7658 44.84 65.9654C44.9891 66.7886 45.7756 67.3363 46.5996 67.1906L55.1458 65.6828L55.4102 67.1791L46.8599 68.6865C45.2101 68.9687 43.6411 67.8692 43.3429 66.222C43.3233 66.0837 43.3129 65.9442 43.311 65.8044L38.3812 64.0107C38.0033 63.8713 37.585 63.8902 37.2208 64.0622C36.754 64.2784 36.4284 64.7164 36.3557 65.2255C36.2841 65.9705 36.7369 66.6662 37.4471 66.9025L52.7929 72.4883L57.1468 71.018ZM59.275 73.2303L62.1304 74.2694L65.7668 64.2777L62.9122 63.239L59.275 73.2303ZM49.7461 50.5055H51.2651V52.0244H49.7461V50.5055ZM45.1893 50.5055H43.6704V52.0244H45.1893V50.5055ZM51.2651 47.4676H49.7461V48.9866H51.2651V47.4676ZM43.6704 47.4676H45.1893V48.9866H43.6704V47.4676ZM49.7461 44.4298H51.2651V45.9487H49.7461V44.4298ZM45.1893 44.4298H43.6704V45.9487H45.1893V44.4298ZM51.2651 41.392H49.7461V42.9109H51.2651V41.392ZM43.6704 41.392H45.1893V42.9109H43.6704V41.392ZM49.7461 38.3541H51.2651V39.8731H49.7461V38.3541ZM45.1893 38.3541H43.6704V39.8731H45.1893V38.3541ZM55.8218 45.1892H58.8597V46.7081H55.8218V45.1892ZM58.8597 48.2273H55.8218V49.7462H58.8597V48.2273ZM55.8218 51.2651H58.8597V52.784H55.8218V51.2651ZM58.8597 54.303H55.8218V55.8219H58.8597V54.303ZM36.0757 48.2273H39.1136V49.7462H36.0757V48.2273ZM39.1136 51.2651H36.0757V52.784H39.1136V51.2651ZM36.0757 54.303H39.1136V55.8219H36.0757V54.303Z" fill="#0EF5FF"/>
</g>
<defs>
<filter id="filter0_d" x="0" y="0" width="97.4956" height="106" filterUnits="userSpaceOnUse" color-interpolation-filters="sRGB">
<feFlood flood-opacity="0" result="BackgroundImageFix"/>
<feColorMatrix in="SourceAlpha" type="matrix" values="0 0 0 0 0 0 0 0 0 0 0 0 0 0 0 0 0 0 127 0"/>
<feOffset/>
<feGaussianBlur stdDeviation="15"/>
<feColorMatrix type="matrix" values="0 0 0 0 0.054902 0 0 0 0 0.960784 0 0 0 0 1 0 0 0 0.8 0"/>
<feBlend mode="normal" in2="BackgroundImageFix" result="effect1_dropShadow"/>
<feBlend mode="normal" in="SourceGraphic" in2="effect1_dropShadow" result="shape"/>
</filter>
</defs>
</svg>

<svg width="98" height="106" viewBox="0 0 98 106" fill="none" xmlns="http://www.w3.org/2000/svg"><g filter="url(#filter0_d)"><path fill-rule="evenodd" clip-rule="evenodd" d="M64.935 58.1v1.52H30V58.1h3.038V45.95c0-.42.34-.76.76-.76h6.834v-9.113c0-.42.34-.76.76-.76h1.519v-2.278c0-.42.34-.76.76-.76h3.037V30h1.52v2.278h3.037c.42 0 .76.34.76.76v2.278h1.518c.42 0 .76.34.76.76v6.075h6.835c.42 0 .76.34.76.76V58.1h3.037zM45.95 55.062V58.1h3.038v-3.038H45.95zM60.38 58.1V43.67h-6.076V58.1h6.076zm-9.873-24.303H44.43v1.52h6.076v-1.52zm2.278 3.038H42.151V58.1h2.279v-3.797c0-.42.34-.76.76-.76h4.556c.42 0 .76.34.76.76V58.1h2.278V36.835zm-12.151 9.873h-6.076V58.1h6.075V46.708zm7.594-8.354h-1.519v1.52h1.52v-1.52zm-1.519 3.038h1.52v1.519h-1.52v-1.519zm1.52 3.038h-1.52v1.519h1.52v-1.52zm-1.52 3.038h1.52v1.519h-1.52v-1.52zm1.52 3.037h-1.52v1.52h1.52v-1.52zm14.486 11.05l4.282 1.558a.76.76 0 01.456.968l-4.156 11.42a.76.76 0 01-.973.453l-4.283-1.558a.76.76 0 01-.456-.974l.26-.713-.463-.169-4.355 1.47a.762.762 0 01-.503-.006l-15.595-5.676a3.104 3.104 0 01-2.073-3.335 3.047 3.047 0 011.723-2.31 3.014 3.014 0 012.323-.102l4.734 1.731a3.044 3.044 0 012.173-1.605l10.323-1.823a.738.738 0 01.39.034l4.96 1.805.26-.713a.76.76 0 01.973-.456zm-5.567 9.463a.76.76 0 01.503.005l.714.262 2.598-7.139-4.77-1.735-10.12 1.785a1.526 1.526 0 00-1.164.978.946.946 0 00-.052.19 1.596 1.596 0 00-.016.601 1.52 1.52 0 001.76 1.226l8.546-1.508.264 1.496-8.55 1.507a3.051 3.051 0 01-3.517-2.464 3.295 3.295 0 01-.032-.418l-4.93-1.793a1.501 1.501 0 00-1.16.051 1.519 1.519 0 00-.865 1.163 1.606 1.606 0 001.091 1.678l15.346 5.585 4.354-1.47zm2.128 2.212l2.855 1.04 3.637-9.992-2.855-1.039-3.637 9.991zm-9.529-22.725h1.52v1.52h-1.52v-1.52zm-4.557 0h-1.52v1.52h1.52v-1.52zm6.076-3.037h-1.519v1.519h1.52v-1.52zm-7.595 0h1.52v1.519h-1.52v-1.52zm6.076-3.038h1.52v1.519h-1.52v-1.52zm-4.557 0h-1.52v1.519h1.52v-1.52zm6.076-3.038h-1.519v1.519h1.52v-1.519zm-7.595 0h1.52v1.519h-1.52v-1.519zm6.076-3.038h1.52v1.52h-1.52v-1.52zm-4.557 0h-1.52v1.52h1.52v-1.52zm10.633 6.835h3.038v1.52h-3.038v-1.52zm3.038 3.038h-3.038v1.52h3.038v-1.52zm-3.038 3.038h3.038v1.519h-3.038v-1.519zm3.038 3.038h-3.038v1.519h3.038v-1.519zm-22.784-6.076h3.038v1.52h-3.038v-1.52zm3.038 3.038h-3.038v1.519h3.038v-1.519zm-3.038 3.038h3.038v1.519h-3.038v-1.519z" fill="#0EF5FF"/></g><defs><filter id="filter0_d" x="0" y="0" width="97.496" height="106" filterUnits="userSpaceOnUse" color-interpolation-filters="sRGB"><feFlood flood-opacity="0" result="BackgroundImageFix"/><feColorMatrix in="SourceAlpha" values="0 0 0 0 0 0 0 0 0 0 0 0 0 0 0 0 0 0 127 0"/><feOffset/><feGaussianBlur stdDeviation="15"/><feColorMatrix values="0 0 0 0 0.054902 0 0 0 0 0.960784 0 0 0 0 1 0 0 0 0.8 0"/><feBlend in2="BackgroundImageFix" result="effect1_dropShadow"/><feBlend in="SourceGraphic" in2="effect1_dropShadow" result="shape"/></filter></defs></svg>
